X: 28132
T: Mrs Crehan's
R: reel
M: 4/4
K: Fmajor
F2cF dFcF|F2cF GAcA|F2cF dFcF|DFGA BdcA|
F2cF dFcF|F2cF GAcA|F2cF dFcF|DFGA Bffd||
c2Ac F2 (3FGA|cAFG AG~G2|c2Ac FcAc|dBGB AFFG|
Ac2d cAFA|CDFA GFD2|FGAd cdcB|AcGc AFF2||

